packages/foundations/assets/icons/functional/images/x_placeholder_20.svg

<svg width="20" height="20" viewBox="0 0 20 20" fill="none" xmlns="http://www.w3.org/2000/svg">
    <g clip-path="url(#clip0_7_378)">
        <path d="M5.76891 4.63431C5.45649 4.3219 4.94996 4.3219 4.63754 4.63431C4.32512 4.94673 4.32512 5.45327 4.63754 5.76569L8.87185 10L4.63754 14.2343C4.32512 14.5467 4.32512 15.0533 4.63754 15.3657C4.94996 15.6781 5.45649 15.6781 5.76891 15.3657L10.0032 11.1314L14.2375 15.3657C14.55 15.6781 15.0565 15.6781 15.3689 15.3657C15.6813 15.0533 15.6813 14.5467 15.3689 14.2343L11.1346 10L15.3689 5.76569C15.6813 5.45327 15.6813 4.94673 15.3689 4.63431C15.0565 4.3219 14.55 4.3219 14.2375 4.63431L10.0032 8.86863L5.76891 4.63431Z" fill="#1A1C1F"/>
        <path fill-rule="evenodd" clip-rule="evenodd" d="M2 2.8C2 2.35817 2.35817 2 2.8 2H17.2C17.6418 2 18 2.35817 18 2.8V17.2C18 17.6418 17.6418 18 17.2 18H2.8C2.35817 18 2 17.6418 2 17.2V2.8ZM2.8 2.8H17.2V17.2H2.8V2.8Z" fill="#1A1C1F"/>
    </g>
    <defs>
        <clipPath id="clip0_7_378">
            <rect width="20" height="20" fill="white"/>
        </clipPath>
    </defs>
</svg>

<svg xmlns="http://www.w3.org/2000/svg" width="20" height="20" fill="none"><g fill="#1A1C1F" clip-path="url(#a)"><path d="M5.769 4.634a.8.8 0 0 0-1.131 1.132L8.872 10l-4.234 4.234a.8.8 0 0 0 1.13 1.132l4.235-4.235 4.235 4.235a.8.8 0 0 0 1.13-1.132L11.136 10l4.234-4.234a.8.8 0 0 0-1.131-1.132L10.003 8.87z"/><path fill-rule="evenodd" d="M2 2.8a.8.8 0 0 1 .8-.8h14.4a.8.8 0 0 1 .8.8v14.4a.8.8 0 0 1-.8.8H2.8a.8.8 0 0 1-.8-.8zm.8 0h14.4v14.4H2.8z" clip-rule="evenodd"/></g><defs><clipPath id="a"><path fill="#fff" d="M0 0h20v20H0z"/></clipPath></defs></svg>
